!!!!SEGMENT: pl-kk--kk-i-68--007_anonim--missa-agnus-dei.krn
!!!cenid: 17xx:2279
!!!COM: Anonim
!!!COM-rismID: pe30004985
!!!CDT:
!!!CNT:
!!!OPR: Missa
!!!OTL: Agnus Dei
!!!OMV: 007
!!!PDT:
!!!AGN: Sacred; Mass
!!!SMS-siglum: PL-Kk
!!!SMS-shelfmark: Kk.I.68
!!!SMS-shelfwork: 001-007 M
!!!SMS-variant: Baſso PL-Kk Kk.I.68:0012-0013
!!!SMS-altvar: Baſso PL-Kk Kk.I.68:0017-0018
!!!NIFC-rismSourceID: 1001154624
!!!NIFC-islandoraID: pl-kk:2850
!!!URL-pdf-islandora: https://repozytorium.nifc.pl/islandora/object/pl-kk%3A2850/datastream/PDF/view
!!!URL-scan: https://polish.musicsources.pl/pl/lokalizacje/galeria/rekopisy/6139 @EN{Scan on Polish Music Sources Website} @PL{Skany w portalu Dziedzictwo Muzyki Polskiej w otwartym dostępie}
!!!ONB-nifc: UWAGA: części Mszy: 1. Protexisti me, 2. Kyrie, 3. Alleluia, 4. Posuisti Domine, 5. Sanctus, 6. Benedictus, 7. Agnus Dei, 8. Dona nobis, 9. Deo gratias
!!!AIN: 1 empty 2 tenor
!!!key:
**kern	**text	**kern	**text	**kern	**text
*part3	*part3	*part2	*part2	*part1	*part1
*staff3	*staff3	*staff2	*staff2	*staff1	*staff1
*Iempty	*	*Itenor	*	*Itenor	*
*I"Baſso	*	*I"Tenore Secundo	*	*I"Tenore Primo	*
*I'B	*	*I'T 2	*	*I'T 1	*
*clefF4	*	*clefC4	*	*clefC4	*
*k[]	*	*k[]	*	*k[]	*
*C:	*	*C:	*	*C:	*
*M2/2	*	*M2/2	*	*M2/2	*
*met(c|)	*	*met(c|)	*	*met(c|)	*
=1	=1	=1	=1	=1	=1
*2\right	*	*2\right	*	*2\right	*
2c\	A-	2e\	A-	2c\	A-
4G\	.	4d\	.	4B\	.
4E\	-gnus	4c\	-gnus	4c\	-gnus
=2	=2	=2	=2	=2	=2
2G\	De-	4B\	De-	4d\	De-
.	.	4c\	.	4e\	.
4G\	-i	4d\	-i	4f\	-i
4G\	qui	4B\	qui	4d\	qui
=3	=3	=3	=3	=3	=3
2C/	tol-	4c\	tol-	4e\	tol-
.	.	4e\	.	4g\	.
4F\	.	4d\	.	4f\	.
4F#X\	.	4c\	.	4e\	.
=4	=4	=4	=4	=4	=4
2G\	lis	2B\	lis	2d\	lis
2G\	pec-	2B\	pec-	2d\	pec-
=5	=5	=5	=5	=5	=5
1C	-ca-	4c\	-ca-	4e\	-ca-
.	.	4B\	.	4d\	.
.	.	4e\	.	4c\	.
.	.	4d\	.	4B\	.
!	!	!	!	!LO:LB:g=original	!
=6	=6	=6	=6	=6	=6
2.C/	.	4e\	.	4c\	.
.	.	4d\	.	4B\	.
.	.	4c\	.	4A\	.
4C#X/	-ta	4B\	-ta	4G/	-ta
!	!	!LO:LB:g=original	!	!	!
=7	=7	=7	=7	=7	=7
2D/	mun-	2A/	mun-	2F#X/	mun-
2D/	-di	2A/	-di	2F#/	-di
!LO:LB:g=original	!	!	!	!	!
=8	=8	=8	=8	=8	=8
2D\	mi-	2A/	mi-	2c\	mi-
2D\	-se-	2F#X/	-se-	2A\	-se-
=9	=9	=9	=9	=9	=9
4G\	-re-	4G/	-re-	4B\	-re-
4D\	.	4A/	.	4c\	.
2G\	-re	2B\	-re	2d\	-re
=10	=10	=10	=10	=10	=10
2C/	no-	4c\	no-	4e\	no-
.	.	4A\	.	4f#X\	.
4BB/	.	4B\	.	4g\	.
4C/	.	4A\	.	4c\	.
=11	=11	=11	=11	=11	=11
1D	.	2G/	.	2B\	.
.	.	2F#X/	.	2A\	.
=12	=12	=12	=12	=12	=12
2G\	-bis	2G/	-bis	2B\	-bis
4G\	mi-	4G/	mi-	4B\	mi-
4G\	-se-	4A/	-se-	4c\	-se-
!	!	!	!	!LO:LB:g=original	!
=13	=13	=13	=13	=13	=13
2G\	-re-	4B\	-re-	4d\	-re-
.	.	4c\	.	4e\	.
2G\	-re	2d\	-re	2fn\	-re
!	!	!LO:PB:g=original	!	!	!
=14	=14	=14	=14	=14	=14
4c\	mi-	4c\	mi-	4e\	mi-
4G\	.	4B\	.	4d\	.
4E\	.	4c\	.	4e\	.
4D\	-se-	4d\	-se-	4f\	-se-
!LO:LB:g=original	!	!	!	!	!
=15	=15	=15	=15	=15	=15
4C/	-re-	4c\	-re-	4e\	-re-
4D/	.	4d\	.	4f\	.
2E/	-re	2e\	-re	2g\	-re
=16	=16	=16	=16	=16	=16
2G\	no-	2d\	no-	2f\	no-
2c\	.	2c\	.	2e\	.
=17	=17	=17	=17	=17	=17
2B\	.	2B\	.	2d\	.
2c\	.	2c\	.	2e\	.
=18	=18	=18	=18	=18	=18
1G	.	1B	.	1d	.
=19	=19	=19	=19	=19	=19
1C	-bis	1c	-bis	1e	-bis
!	!	!LO:LB:g=original	!	!LO:PB:g=original	!
=20||	=20||	=20||	=20||	=20||	=20||
*M2/2	*	*M2/2	*	*M2/2	*
*met(c|)	*	*met(c|)	*	*met(c|)	*
2C/	A-	2G/	A-	2e\	A-
4D/	.	4G/	.	4d\	.
4E\	-gnus	4G/	-gnus	4c\	-gnus
=21	=21	=21	=21	=21	=21
2G\	De-	2d\	De-	2f\	De-
4G\	-i	4c\	-i	4e\	-i
4G\	qui	4B\	qui	4d\	qui
!LO:LB:g=original	!	!	!	!	!
=22	=22	=22	=22	=22	=22
2E\	tol-	2c\	tol-	2e\	tol-
4D/	-lis	4d\	-lis	4f\	-lis
4C/	pec-	4e\	pec-	4g\	pec-
=23	=23	=23	=23	=23	=23
2G\	-ca-	4d\	-ca-	4f\	-ca-
.	.	4e\	.	4g\	.
2G\	-ta	4d\	.	4f\	-ta
.	.	4c\	-ta	4e\	.
=24	=24	=24	=24	=24	=24
2G\	mun-	2B\	mun-	2d\	mun-
2GG/	-di	2B\	-di	2d\	-di
=25	=25	=25	=25	=25	=25
2.C/	mi-	2.G/	mi-	2.e\	mi-
4C/	-se-	4G/	-se-	4e\	-se-
!	!	!LO:LB:g=original	!	!	!
=26	=26	=26	=26	=26	=26
2G\	-re-	2B\	-re-	2d\	-re-
2c\	-re	2c\	-re	2e\	-re
!	!	!	!	!LO:LB:g=original	!
=27	=27	=27	=27	=27	=27
1G	no-	2d\	no-	2f\	no-
.	.	2c\	.	2e\	.
=28	=28	=28	=28	=28	=28
2G\	.	2B\	.	2d\	.
2E\	.	2c\	.	2e\	.
=29	=29	=29	=29	=29	=29
2G\	.	1B	.	1d	.
2GG/	.	.	.	.	.
=30	=30	=30	=30	=30	=30
1C	-bis	1G	-bis	1e	-bis
!LO:PB:g=original	!	!LO:LB:g=original	!	!LO:LB:g=original	!
=31||	=31||	=31||	=31||	=31||	=31||
*M3/2	*	*M3/2	*	*M3/2	*
2C/	A-	2c\	A-	2e\	A-
2c\	.	2e\	.	2g\	.
2G\	-gnus	2d\	-gnus	2f\	-gnus
=32	=32	=32	=32	=32	=32
2E\	De-	2c\	De-	2e\	De-
2C\	-i	2c\	-i	2e\	-i
2G\	qui	2B\	qui	2d\	qui
=33	=33	=33	=33	=33	=33
2E\	tol-	2e\	tol-	2c\	tol-
2C/	-lis	2e\	-lis	2c\	-lis
2G\	qui	2B\	qui	2d\	qui
=34	=34	=34	=34	=34	=34
2c\	tol-	2c\	tol-	2e\	tol-
2G\	-lis	2B\	-lis	2d\	-lis
2G\	pec-	2d\	pec-	2f\	pec-
=35	=35	=35	=35	=35	=35
2G\	-ca-	2d\	-ca-	2f\	-ca-
2c\	-ta	2c\	-ta	2e\	-ta
2C/	pec-	2e\	pec-	2g\	pec-
=36	=36	=36	=36	=36	=36
2C/	-ca-	2e\	-ca-	2g\	-ca-
2D/	.	2d\	.	2f\	.
!LO:LB:g=original	!	!	!	!	!
=-	=-	=-	=-	=-	=-
2E\	-ta	2c\	-ta	2e\	-ta
!	!	!	!	!LO:LB:g=original	!
=37	=37	=37	=37	=37	=37
2E\	mun-	2c\	mun-	2e\	mun-
2F\	.	2B\	.	2d\	.
2F#X\	.	2A\	.	2c\	.
=38	=38	=38	=38	=38	=38
1.G	-di	1.B	-di	1.d	-di
!LO:LB:g=original	!	!LO:LB:g=original	!	!LO:LB:g=original	!
==	==	==;;	==	==	==
*-	*-	*-	*-	*-	*-
!!!system-decoration: [(s1,s2,s3)]
!!!ENC: Marta Chmielewska
!!!END: 2021-08-06
!!!ENC: Tomasz Grochalski
!!!END: 2021-07-09
!!!YEC: Copyright 2022 Narodowy Instytut Fryderyka Chopina (https://polishscores.org)
!!!YEM: Licence CC BY 4.0 (https://creativecommons.org/licenses/by/4.0)
